X: 1
T: Brookline
P: piffero primo a0897
O: Dan Moylan
%R: march
F: http://ancients.sudburymuster.org/mus/sng/pdf/brooklineC0.pdf
Z: 2020 John Chambers <jc:trillian.mit.edu>
M: 2/4
L: 1/16
K: D
(3ABc |\
d2A2 e2A2 | fefg a2A2 | b2a2 g2f2 | edcB A2 (3ABc |\
d2A2 e2A2 | fefg a2A2 | b2a2 agfe | d4 z2 :|
|: (3def |\
g2f2 e2d2 | g2f2 e2d2 | a2g2 f2e2 | d4 z2d2 |\
B2c2 d2d2 | e2f2 g2g2 | b2a2 agfe | d4 z2 :|
